icon/pk/star-one.svg

<svg viewBox="0 0 48 48" fill="none" xmlns="http://www.w3.org/2000/svg" height="1em" width="1em">
  <path fill-rule="evenodd" clip-rule="evenodd" d="M16.8712 33.0437L15.9976 44.7037C15.9362 45.5231 16.6646 46.0874 17.3161 45.7222C21.9289 43.1384 36.3783 33.6481 43.7017 12.7901C44.0376 11.8333 43.1352 10.9699 42.3646 11.5096C38.0387 14.5391 28.5846 20.8008 22.7421 21.9935C22.7421 21.9935 26.4836 19.3948 28.7231 15.4055C28.9426 15.0144 28.9244 14.5138 28.6796 14.1608L20.5127 2.38942C20.0287 1.69163 19.0354 1.98074 18.8606 2.87019L16.3181 15.8074L4.38437 26.2228C3.78602 26.7448 3.90808 27.7998 4.5989 28.0792L16.8712 33.0437Z" fill="black"/>
  <path fill-rule="evenodd" clip-rule="evenodd" d="M37.9745 28.4481C37.2188 29.5026 35.5908 31.6718 34.0876 32.9975C33.7871 33.2625 33.8276 33.707 34.1724 33.9235L42.1145 38.9092C42.5926 39.2092 43.2384 38.853 43.1576 38.3325C42.7882 35.9498 41.7237 30.982 39.0328 28.3743C38.7322 28.0832 38.2142 28.1138 37.9745 28.4481Z" fill="black"/>
</svg>

<svg width="48" height="48" fill="none" xmlns="http://www.w3.org/2000/svg"><path fill-rule="evenodd" clip-rule="evenodd" d="m16.871 33.044-.873 11.66c-.062.82.667 1.383 1.318 1.018 4.613-2.584 19.062-12.074 26.386-32.932.336-.957-.567-1.82-1.337-1.28-4.326 3.03-13.78 9.29-19.623 10.484 0 0 3.742-2.6 5.981-6.588.22-.392.201-.892-.043-1.245L20.513 2.389c-.484-.697-1.478-.408-1.652.481l-2.543 12.937L4.384 26.223c-.598.522-.476 1.577.215 1.856l12.272 4.965ZM37.974 28.448c-.755 1.055-2.383 3.224-3.886 4.55-.3.265-.26.709.084.925l7.943 4.986c.478.3 1.123-.056 1.043-.576-.37-2.383-1.434-7.351-4.125-9.959-.3-.29-.819-.26-1.059.074Z" fill="#000"/></svg>
